mockup/templates/main/build/images/GROHE AquaDimmer.svg

<svg xmlns="http://www.w3.org/2000/svg" width="48" height="48" viewBox="0 0 48 48">
  <g fill="none" fill-rule="evenodd">
    <rect width="48" height="48" fill="#132D52" rx="8"/>
    <path fill="#FFF" d="M19.8823963 22.0073438C19.8319631 21.4738138 19.4842396 13.1523392 14.2020276 10.9200074 11.7228387 9.98832074 8.49511521 11.3208184 8.0040553 13.7283392 7.81028571 14.6732977 8.49776959 14.6839152 8.65703226 14.7157677 8.65703226 14.7157677 9.94175115 14.9520074 12.0944516 14.8113253 13.2968848 14.7555834 13.5623226 14.6361364 13.8649217 14.3415005 14.2498065 13.9698876 14.6081475 13.8982194 15.0355023 14.2857585 15.5769954 14.7768184 18.0243318 17.3595281 18.1490876 21.9861088 18.1995207 22.7505696 18.3773641 22.9071779 19.0409585 22.9204498 19.0409585 22.9204498 19.9938802 23.0425512 19.8823963 22.0073438M9.26488479 17.0821456C9.08173272 17.4112885 8.66499539 17.5280811 8.33850691 17.3422747 8.00936406 17.1564682 7.89522581 16.7423853 8.08103226 16.4158968 8.26152995 16.0867539 8.6756129 15.9726157 9.00475576 16.1557677 9.33124424 16.3415742 9.44803687 16.7556571 9.26488479 17.0821456"/>
    <path fill="#FFF" d="M11.6962949 17.0821456C11.5131429 17.4112885 11.0964055 17.5280811 10.7699171 17.3422747 10.4407742 17.1564682 10.3266359 16.7423853 10.5124424 16.4158968 10.6929401 16.0894083 11.107023 15.9726157 11.4361659 16.1557677 11.7626544 16.3415742 11.879447 16.7556571 11.6962949 17.0821456M14.1250507 17.0821456C13.9418986 17.4112885 13.5251613 17.5280811 13.1960184 17.3422747 12.86953 17.1564682 12.7553917 16.7423853 12.9411982 16.4158968 13.1243502 16.0867539 13.5384332 15.9726157 13.8649217 16.1557677 14.1914101 16.3415742 14.3082028 16.7556571 14.1250507 17.0821456M8.84230783 19.8323465C8.65915576 20.1614894 8.24241843 20.278282 7.91327558 20.09513 7.5867871 19.9093235 7.47264885 19.4952406 7.6584553 19.1660977 7.84160737 18.8396092 8.25569032 18.7228166 8.5821788 18.9059687 8.90866728 19.0944295 9.02811429 19.5085124 8.84230783 19.8323465M11.6962949 19.8323465C11.5131429 20.1614894 11.0937512 20.278282 10.7699171 20.09513 10.4407742 19.9093235 10.3266359 19.4925862 10.5124424 19.1660977 10.6929401 18.8396092 11.107023 18.7228166 11.4361659 18.9059687 11.7626544 19.0944295 11.879447 19.5085124 11.6962949 19.8323465M14.5476276 19.8323465C14.3644756 20.1641438 13.9450839 20.278282 13.6185954 20.09513 13.2921069 19.9093235 13.1753143 19.4952406 13.3637751 19.1660977 13.5469272 18.8396092 13.9583558 18.7228166 14.2874986 18.9059687 14.6139871 19.0944295 14.7307797 19.5058581 14.5476276 19.8323465M14.9545438 22.810824C14.7713917 23.1399668 14.3546544 23.2514507 14.0255115 23.070953 13.699023 22.8851465 13.5822304 22.4710636 13.7680369 22.1445751 13.9538433 21.8154323 14.3679263 21.6986396 14.6944147 21.8844461 15.0209032 22.0702525 15.1376959 22.4843355 14.9545438 22.810824M11.6962949 22.810824C11.5131429 23.1373124 11.0964055 23.2514507 10.7699171 23.070953 10.4407742 22.8851465 10.3266359 22.4684092 10.5124424 22.1445751 10.6929401 21.8154323 11.107023 21.6986396 11.4361659 21.8844461 11.7626544 22.0675982 11.879447 22.4843355 11.6962949 22.810824M8.43539171 22.810824C8.25489401 23.1373124 7.83815668 23.2514507 7.50901382 23.070953 7.18252535 22.8851465 7.06573272 22.4684092 7.25153917 22.1445751 7.43469124 21.8154323 7.84877419 21.6986396 8.17526267 21.8844461 8.50440553 22.0702525 8.62119816 22.4816811 8.43539171 22.810824M40.2151963 12.566518C40.2151963 13.6787023 39.3153622 14.5785364 38.2031779 14.5785364 37.0936479 14.5785364 36.1911594 13.6787023 36.1911594 12.566518 36.1911594 11.456988 37.0936479 10.5544995 38.2031779 10.5544995 39.3153622 10.5544995 40.2151963 11.456988 40.2151963 12.566518M30.8056922 22.6709382C30.5508719 23.1009475 29.9934525 23.2442839 29.5634433 22.9868092 29.1334341 22.7293346 28.9900977 22.1745696 29.244918 21.7472147L30.1049364 20.2979244C30.3571023 19.8705696 30.9145217 19.7298876 31.3471853 19.9820535 31.7745401 20.2395281 31.9178765 20.7942931 31.6657106 21.2243023L30.8056922 22.6709382zM38.0688664 22.6709382C38.3236866 23.1009475 38.881106 23.2442839 39.3084608 22.9868092 39.7411244 22.7293346 39.8844608 22.1745696 39.6269862 21.7472147L38.7722765 20.2979244C38.5148018 19.8705696 37.9573825 19.7298876 37.5273733 19.9820535 37.1000184 20.2395281 36.956682 20.7942931 37.2115023 21.2243023L38.0688664 22.6709382z"/>
    <path fill="#FFF" d="M40.3760516,15.8274212 L28.662282,15.8274212 C28.086282,15.8274212 27.8075724,16.212306 27.8075724,16.6847853 C27.8075724,16.9130618 28.0411576,17.2899834 28.0411576,17.2899834 C28.0411576,17.2899834 28.6994433,18.2641401 29.3603834,19.2037899 C29.5860055,19.4692276 29.8434802,19.5382415 30.2336737,19.3975594 C30.4354065,19.2993475 30.6557198,19.2356424 30.8946138,19.2356424 C31.7201253,19.2356424 32.3890286,19.9072 32.3890286,20.7327115 C32.3890286,21.1467945 32.6093419,21.417541 33.0287336,21.417541 L35.8397198,21.417541 C36.5378212,21.417541 36.4847336,20.7486378 36.4847336,20.7327115 C36.4847336,19.9072 37.1536369,19.2356424 37.9818028,19.2356424 C38.2658212,19.2356424 38.5286046,19.3179281 38.7542267,19.4559558 C39.4709088,19.7585548 39.8106691,19.1108866 39.8133235,19.1108866 L40.9892129,17.3722691 C41.1431668,17.0988682 41.2174894,16.886518 41.2174894,16.6343521 C41.2174894,16.1618728 40.8511853,15.8274212 40.3760516,15.8274212"/>
    <path fill="#B4C0D0" d="M11.9866839 27.4456332L21.5742968 31.38473C22.1290618 31.6209696 22.025541 32.0085088 21.5875687 32.0085088L11.8088406 32.0085088C11.4345733 31.9899281 10.9912922 31.9978912 10.9912922 31.1962691L10.9912922 27.8623705C10.9912922 27.1483429 11.5805641 27.2704442 11.9866839 27.4456332M36.2208885 27.4456332L26.6306212 31.38473C26.0785106 31.6209696 26.1820313 32.0085088 26.6173493 32.0085088L36.3960774 32.0085088C36.7729991 31.9899281 37.2136258 31.9978912 37.2136258 31.1962691L37.2136258 27.8623705C37.2136258 27.1483429 36.6270083 27.2704442 36.2208885 27.4456332M24.6570912 22.5955539C24.6570912 22.9008074 24.4102341 23.1503189 24.1023263 23.1503189 23.7970728 23.1503189 23.5475613 22.9008074 23.5475613 22.5955539L23.5475613 11.1074065C23.5475613 10.8048074 23.7970728 10.5526415 24.1023263 10.5526415 24.4102341 10.5526415 24.6570912 10.8048074 24.6570912 11.1074065L24.6570912 22.5955539z"/>
    <path fill="#FFF" d="M13.3292682 34.8903668C13.2284018 34.6620903 13.0107429 34.5001733 12.6895631 34.5001733 12.3710378 34.5001733 12.1507244 34.6620903 12.0498581 34.8903668 11.9888074 35.0310488 11.9702267 35.1398783 11.9675724 35.3017954L13.4142083 35.3017954C13.4035908 35.1398783 13.3903189 35.0310488 13.3292682 34.8903668L13.3292682 34.8903668zM11.9675724 35.9547724C11.9675724 36.451141 12.2568995 36.8041733 12.8090101 36.8041733 13.0479041 36.8041733 13.278835 36.7378138 13.4672959 36.5997862 13.615941 36.4936111 13.7114986 36.4564498 13.8256369 36.4564498 14.0061346 36.4564498 14.2078673 36.6369475 14.2078673 36.8546065 14.2078673 37.0377585 14.0539134 37.1970212 13.8336 37.3483207 13.573471 37.5235097 13.21513 37.6084498 12.7957382 37.6084498 11.8905954 37.6084498 11.030577 37.1970212 11.030577 35.6601364 11.030577 34.4152332 11.7021346 33.7091687 12.6895631 33.7091687 13.7168074 33.7091687 14.3140424 34.4470857 14.3485493 35.4106249 14.3512037 35.5566157 14.332623 35.7211871 14.2184848 35.832671 14.0990378 35.9547724 13.9424295 35.9547724 13.8017475 35.9547724L11.9675724 35.9547724zM17.4846968 33.8949751C17.6997014 34.0038046 17.9465585 34.1843023 17.9465585 34.4311594 17.9465585 34.5532608 17.8987797 34.6514728 17.8111853 34.7417217 17.7448258 34.8160442 17.6333419 34.8664774 17.5192037 34.8664774 17.4103742 34.8664774 17.3227797 34.8346249 17.1900608 34.7364129 17.0361069 34.624929 16.9086968 34.5718415 16.7308535 34.5718415 16.5131945 34.5744959 16.327388 34.6541272 16.1946691 34.821353 16.0486783 35.0045051 15.9823189 35.256671 15.9823189 35.6548276 15.9823189 36.0529843 16.0486783 36.3157677 16.1946691 36.4962654 16.3326968 36.6661456 16.5052313 36.745777 16.7308535 36.745777 16.9086968 36.745777 17.0361069 36.7006525 17.1900608 36.5865143 17.3201253 36.4909567 17.4103742 36.4458323 17.5192037 36.4458323 17.6333419 36.4458323 17.7448258 36.5042286 17.8111853 36.5758968 17.8987797 36.6608369 17.9465585 36.7617032 17.9465585 36.886459 17.9465585 37.1280074 17.7050101 37.3058507 17.4846968 37.4279521 17.261729 37.5473991 17.0387613 37.6084498 16.7308535 37.6084498 15.9717014 37.6084498 15.0293972 37.1996756 15.0293972 35.6548276 15.0293972 34.1099797 15.9743558 33.7091687 16.741471 33.7091687 17.0467244 33.7091687 17.2670378 33.7649106 17.4846968 33.8949751M19.7241954 36.5830636C19.8330249 36.6918931 19.9763613 36.747635 20.1648221 36.747635 20.3559373 36.747635 20.4992737 36.6918931 20.6081032 36.5830636 20.8018728 36.3919484 20.831071 36.0601512 20.831071 35.6593401 20.831071 35.2611834 20.8018728 34.9267318 20.6081032 34.738271 20.4992737 34.6294415 20.3559373 34.5710452 20.1648221 34.5710452 19.9763613 34.5710452 19.8330249 34.6294415 19.7241954 34.738271 19.5304258 34.9267318 19.4985733 35.2611834 19.4985733 35.6593401 19.4985733 36.0601512 19.5304258 36.3919484 19.7241954 36.5830636M21.3486747 37.1404829C21.1097806 37.3926488 20.7355134 37.6103078 20.1648221 37.6103078 19.5967853 37.6103078 19.222518 37.3926488 18.983624 37.1404829 18.6385548 36.7768332 18.548306 36.3547871 18.548306 35.6593401 18.548306 34.9665475 18.6385548 34.541847 18.983624 34.1755429 19.222518 33.9260313 19.5967853 33.7083724 20.1648221 33.7083724 20.7355134 33.7083724 21.1097806 33.9260313 21.3486747 34.1755429 21.6937438 34.541847 21.7813382 34.9665475 21.7813382 35.6593401 21.7813382 36.3547871 21.6937438 36.7768332 21.3486747 37.1404829"/>
    <path fill="#132D52" d="M15.4394986,32.8735705 C15.4394986,33.02487 15.1899871,33.1469714 14.8847336,33.1469714 C14.5768258,33.1469714 14.3273143,33.02487 14.3273143,32.8735705 L14.3273143,27.2330175 C14.3273143,27.081718 14.5768258,26.9596166 14.8847336,26.9596166 C15.1899871,26.9596166 15.4394986,27.081718 15.4394986,27.2330175 L15.4394986,32.8735705 Z"/>
  </g>
</svg>

<svg xmlns="http://www.w3.org/2000/svg" width="48" height="48"><g fill="none" fill-rule="evenodd"><rect width="48" height="48" fill="#132D52" rx="8"/><path fill="#FFF" d="M19.882 22.007c-.05-.533-.398-8.855-5.68-11.087-2.48-.932-5.707.4-6.198 2.808-.194.945.494.956.653.988 0 0 1.285.236 3.437.095 1.203-.055 1.468-.175 1.77-.47.386-.371.744-.443 1.172-.055.541.49 2.988 3.074 3.113 7.7.05.765.228.921.892.934 0 0 .953.123.841-.913M9.265 17.082a.678.678 0 0 1-.926.26.677.677 0 0 1-.258-.926.676.676 0 0 1 .924-.26c.326.186.443.6.26.926"/><path fill="#FFF" d="M11.696 17.082a.678.678 0 0 1-.926.26.677.677 0 0 1-.258-.926.678.678 0 0 1 .924-.26c.327.186.443.6.26.926m2.43 0a.68.68 0 1 1-1.188-.663.68.68 0 0 1 1.187.663m-5.283 2.75a.683.683 0 0 1-.929.263.681.681 0 0 1-.255-.929.68.68 0 1 1 1.184.666m2.854 0a.68.68 0 0 1-1.184-.666.678.678 0 0 1 .924-.26.684.684 0 0 1 .26.926m2.852 0a.679.679 0 1 1-1.184-.666.678.678 0 1 1 1.184.666m.407 2.979a.68.68 0 1 1-1.187-.666.681.681 0 0 1 1.186.666m-3.258 0a.678.678 0 1 1-1.184-.666.673.673 0 0 1 .924-.26c.327.183.443.6.26.926m-3.26 0a.683.683 0 0 1-.927.26.68.68 0 0 1-.257-.926.675.675 0 0 1 .923-.26c.33.185.446.597.26.926m31.78-10.244a2.012 2.012 0 1 1-4.023 0 2.012 2.012 0 0 1 4.023 0m-9.41 10.104a.906.906 0 1 1-1.56-.924l.86-1.45a.91.91 0 0 1 1.242-.315c.428.258.57.812.319 1.242l-.86 1.447zm7.264 0a.902.902 0 0 0 1.24.316.902.902 0 0 0 .318-1.24l-.855-1.45a.916.916 0 0 0-1.245-.315.91.91 0 0 0-.315 1.242l.857 1.447z"/><path fill="#FFF" d="M40.376 15.827H28.662c-.576 0-.854.385-.854.858 0 .228.233.605.233.605s.658.974 1.32 1.914c.225.265.482.334.873.194a1.5 1.5 0 0 1 .66-.162c.826 0 1.495.671 1.495 1.497 0 .414.22.685.64.685h2.81c.699 0 .646-.67.646-.685 0-.826.669-1.497 1.497-1.497.284 0 .547.082.772.22.717.303 1.057-.345 1.06-.345l1.175-1.739c.154-.273.228-.485.228-.738 0-.472-.366-.807-.84-.807"/><path fill="#B4C0D0" d="M11.987 27.446l9.587 3.939c.555.236.452.624.014.624h-9.78c-.373-.02-.817-.011-.817-.813v-3.334c0-.714.59-.592.996-.416m24.234 0l-9.59 3.939c-.552.236-.449.624-.014.624h9.78c.376-.02.817-.011.817-.813v-3.334c0-.714-.587-.592-.993-.416m-11.564-4.85a.555.555 0 1 1-1.11 0V11.107a.556.556 0 0 1 1.11 0v11.489z"/><path fill="#FFF" d="M13.33 34.89c-.102-.228-.32-.39-.64-.39-.319 0-.54.162-.64.39a.967.967 0 0 0-.082.412h1.446a1.106 1.106 0 0 0-.085-.412zm-1.362 1.065c0 .496.289.85.841.85.239 0 .47-.067.658-.205.149-.106.244-.144.359-.144.18 0 .382.18.382.399 0 .183-.154.342-.374.493-.26.176-.619.26-1.038.26-.905 0-1.765-.411-1.765-1.948 0-1.245.671-1.95 1.659-1.95 1.027 0 1.624.737 1.659 1.7.002.147-.016.311-.13.423-.12.122-.277.122-.417.122h-1.834zm5.517-2.06c.215.109.462.29.462.536 0 .122-.048.22-.136.31a.402.402 0 0 1-.292.125c-.109 0-.196-.031-.329-.13a.723.723 0 0 0-.46-.164.665.665 0 0 0-.535.25c-.146.183-.213.435-.213.833 0 .398.067.66.213.841.138.17.31.25.536.25a.702.702 0 0 0 .46-.16c.13-.095.22-.14.328-.14.114 0 .226.058.292.13a.416.416 0 0 1 .136.31c0 .242-.242.42-.462.542a1.49 1.49 0 0 1-.754.18c-.76 0-1.702-.408-1.702-1.953 0-1.545.945-1.946 1.712-1.946.306 0 .526.056.744.186m2.24 2.688a.59.59 0 0 0 .44.165.593.593 0 0 0 .443-.165c.194-.191.223-.523.223-.924 0-.398-.03-.732-.223-.92a.594.594 0 0 0-.443-.168.592.592 0 0 0-.44.167c-.195.189-.226.523-.226.921 0 .401.031.733.225.924m1.625.557c-.24.253-.613.47-1.184.47-.568 0-.942-.217-1.181-.47-.345-.363-.436-.785-.436-1.48 0-.693.09-1.118.436-1.484.239-.25.613-.468 1.18-.468.572 0 .946.218 1.185.468.345.366.432.79.432 1.483 0 .696-.087 1.118-.432 1.481"/><path fill="#132D52" d="M15.44 32.874c0 .15-.25.273-.555.273-.308 0-.558-.122-.558-.273v-5.641c0-.151.25-.273.558-.273.305 0 .554.122.554.273v5.64z"/></g></svg>
